themes/plumerai-blog/static/images/larq-logo.svg

<svg fill="none" height="210" viewBox="0 0 210 210" width="210" xmlns="http://www.w3.org/2000/svg"><g fill="#0a1d3c"><path d="m170 20h-130c-5.3043 0-10.3914 2.1071-14.1421 5.8579-3.7508 3.7507-5.8579 8.8378-5.8579 14.1421v130c0 5.304 2.1071 10.391 5.8579 14.142 3.7507 3.751 8.8378 5.858 14.1421 5.858h130c5.304 0 10.391-2.107 14.142-5.858s5.858-8.838 5.858-14.142v-130c0-5.3043-2.107-10.3914-5.858-14.1421-3.751-3.7508-8.838-5.8579-14.142-5.8579z"/><path d="m80 190h-10v20h10z"/><path d="m100 190h-10v20h10z"/><path d="m120 190h-10v20h10z"/><path d="m140 190h-10v20h10z"/><path d="m20 130h-20v10h20z"/><path d="m20 110h-20v10h20z"/><path d="m20 90h-20v10h20z"/><path d="m20 70h-20v10h20z"/><path d="m210 130h-20v10h20z"/><path d="m210 110h-20v10h20z"/><path d="m210 90h-20v10h20z"/><path d="m210 70h-20v10h20z"/><path d="m140 0h-10v20h10z"/><path d="m120 0h-10v20h10z"/><path d="m100 0h-10v20h10z"/><path d="m80 0h-10v20h10z"/></g><path d="m170 75v5h20v-10h-20.36c.237 1.6562.357 3.327.36 5z" fill="#7dfb9a"/><path d="m159.46 140h30.54v-10h-23.38c-1.78 3.729-4.204 7.114-7.16 10z" fill="#7dfb9a"/><path d="m170 115c-.003 1.673-.123 3.344-.36 5h20.36v-10h-20z" fill="#7dfb9a"/><path d="m190 90h-20v10h20z" fill="#7dfb9a"/><path d="m80 20h-10v40h10z" fill="#7dfb9a"/><path d="m140 20h-10v20h10z" fill="#7dfb9a"/><path d="m120 43.39v-23.39h-10v30.55c2.886-2.9565 6.271-5.3803 10-7.16z" fill="#7dfb9a"/><path d="m100 20h-10v40h10z" fill="#7dfb9a"/><path d="m120 90h-95-5v10h100z" fill="#7dfb9a"/><path d="m140 107.5v-31.5c0-1.3261-.527-2.5979-1.464-3.5355-.938-.9377-2.21-1.4645-3.536-1.4645s-2.598.5268-3.536 1.4645c-.937.9376-1.464 2.2094-1.464 3.5355v31.5c0 .663-.263 1.299-.732 1.768s-1.105.732-1.768.732h-107.5v10h107.5c3.314-.005 6.49-1.324 8.833-3.667s3.662-5.519 3.667-8.833z" fill="#7dfb9a"/><path d="m120 180v-40h15c6.63 0 12.989-2.634 17.678-7.322 4.688-4.689 7.322-11.048 7.322-17.678v-40.07c-.022-5.3803 1.193-10.6936 3.55-15.53l5.87-12.06c.404-.7966.594-1.6845.552-2.5767s-.315-1.7582-.792-2.5133c-.68-1.0358-1.721-1.7822-2.92-2.0944-1.199-.3123-2.471-.1682-3.57.4044l-9.78 5.1c-5.529 2.8797-11.676 4.3693-17.91 4.34-5.761.0082-11.343 2.0017-15.805 5.6447-4.463 3.643-7.534 8.7128-8.695 14.3553h-90.5v10h100v-4.56c-.047-3.907 1.403-7.684 4.053-10.5553 2.65-2.8714 6.299-4.6192 10.197-4.8847 2.032-.1017 4.063.211 5.971.9191 1.907.7082 3.651 1.7969 5.124 3.2001 1.473 1.4031 2.646 3.0913 3.446 4.9619.8 1.8705 1.212 3.8843 1.209 5.9189v40c0 3.978-1.58 7.794-4.393 10.607s-6.629 4.393-10.607 4.393h-115v10h70v40h-10c-2.6522 0-5.1957 1.054-7.0711 2.929-1.8753 1.875-2.9289 4.419-2.9289 7.071h30v-50h10v50h30c0-2.652-1.054-5.196-2.929-7.071s-4.419-2.929-7.071-2.929z" fill="#7dfb9a"/></svg>

<svg xmlns="http://www.w3.org/2000/svg" width="210" height="210" fill="none" viewBox="0 0 210 210"><path fill="#0A1D3C" d="M170 20H40C34.6957 20 29.6086 22.1071 25.8579 25.8579C22.1071 29.6086 20 34.6957 20 40V170C20 175.304 22.1071 180.391 25.8579 184.142C29.6086 187.893 34.6957 190 40 190H170C175.304 190 180.391 187.893 184.142 184.142C187.893 180.391 190 175.304 190 170V40C190 34.6957 187.893 29.6086 184.142 25.8579C180.391 22.1071 175.304 20 170 20Z"/><path fill="#0A1D3C" d="M80 190H70V210H80V190Z"/><path fill="#0A1D3C" d="M100 190H90V210H100V190Z"/><path fill="#0A1D3C" d="M120 190H110V210H120V190Z"/><path fill="#0A1D3C" d="M140 190H130V210H140V190Z"/><path fill="#0A1D3C" d="M20 130H0V140H20V130Z"/><path fill="#0A1D3C" d="M20 110H0V120H20V110Z"/><path fill="#0A1D3C" d="M20 90H0V100H20V90Z"/><path fill="#0A1D3C" d="M20 70H0V80H20V70Z"/><path fill="#0A1D3C" d="M210 130H190V140H210V130Z"/><path fill="#0A1D3C" d="M210 110H190V120H210V110Z"/><path fill="#0A1D3C" d="M210 90H190V100H210V90Z"/><path fill="#0A1D3C" d="M210 70H190V80H210V70Z"/><path fill="#0A1D3C" d="M140 0H130V20H140V0Z"/><path fill="#0A1D3C" d="M120 0H110V20H120V0Z"/><path fill="#0A1D3C" d="M100 0H90V20H100V0Z"/><path fill="#0A1D3C" d="M80 0H70V20H80V0Z"/><path fill="#7DFB9A" d="M170 75V80H190V70H169.64C169.877 71.6562 169.997 73.327 170 75V75Z"/><path fill="#7DFB9A" d="M159.46 140H190V130H166.62C164.84 133.729 162.416 137.114 159.46 140V140Z"/><path fill="#7DFB9A" d="M170 115C169.997 116.673 169.877 118.344 169.64 120H190V110H170V115Z"/><path fill="#7DFB9A" d="M190 90H170V100H190V90Z"/><path fill="#7DFB9A" d="M80 20H70V60H80V20Z"/><path fill="#7DFB9A" d="M140 20H130V40H140V20Z"/><path fill="#7DFB9A" d="M120 43.39V20H110V50.55C112.886 47.5935 116.271 45.1697 120 43.39V43.39Z"/><path fill="#7DFB9A" d="M100 20H90V60H100V20Z"/><path fill="#7DFB9A" d="M120 90H25H20V100H120V90Z"/><path fill="#7DFB9A" d="M140 107.5V76C140 74.6739 139.473 73.4021 138.536 72.4645C137.598 71.5268 136.326 71 135 71C133.674 71 132.402 71.5268 131.464 72.4645C130.527 73.4021 130 74.6739 130 76V107.5C130 108.163 129.737 108.799 129.268 109.268C128.799 109.737 128.163 110 127.5 110H20V120H127.5C130.814 119.995 133.99 118.676 136.333 116.333C138.676 113.99 139.995 110.814 140 107.5V107.5Z"/><path fill="#7DFB9A" d="M120 180V140H135C141.63 140 147.989 137.366 152.678 132.678C157.366 127.989 160 121.63 160 115V74.93C159.978 69.5497 161.193 64.2364 163.55 59.4L169.42 47.34C169.824 46.5434 170.014 45.6555 169.972 44.7633C169.93 43.8711 169.657 43.0051 169.18 42.25C168.5 41.2142 167.459 40.4678 166.26 40.1556C165.061 39.8433 163.789 39.9874 162.69 40.56L152.91 45.66C147.381 48.5397 141.234 50.0293 135 50V50C129.239 50.0082 123.657 52.0017 119.195 55.6447C114.732 59.2877 111.661 64.3575 110.5 70H20V80H120V75.44C119.953 71.533 121.403 67.756 124.053 64.8847C126.703 62.0133 130.352 60.2655 134.25 60C136.282 59.8983 138.313 60.211 140.221 60.9191C142.128 61.6273 143.872 62.716 145.345 64.1192C146.818 65.5223 147.991 67.2105 148.791 69.0811C149.591 70.9516 150.003 72.9654 150 75V115C150 118.978 148.42 122.794 145.607 125.607C142.794 128.42 138.978 130 135 130H20V140H90V180H80C77.3478 180 74.8043 181.054 72.9289 182.929C71.0536 184.804 70 187.348 70 190H100V140H110V190H140C140 187.348 138.946 184.804 137.071 182.929C135.196 181.054 132.652 180 130 180H120Z"/></svg>
